X: 2840
T: Barber Ave.
R: reel
M: 4/4
K: Gmajor
|:dGGG dedB|dedB AGAB|dGGG dedB|dedB GGGB|
dGGG dedB|dedB AGAB|dGGG dedB|dedB GGGB:|
|:eagf e3f|d3e dBAB|dG G/G/G dedB|dedB AGAB|
eagf e3f|d3e dBAB|dG G/G/G dedB|dedB GGGB:|
|:GGBB ddde|dBde dBAB|GGBB ddde|dBAB GGGB|
GGBB ddde|dBde gfdB|GGBB ddde|dBAB GGGB:|
|:Gggf g3a|f3g eeef|d3e dBAB|dGeG dBAB|
Gggf g2ga|f2fg eeef|d3e dBAB|dBAB GGGB:|

